X: 719
T: EAST AT GLENDART
M:6/8
L:1/8
B:O'NEILL'S 719
N:"collected by F. O'Neill"
Z:Transcribed by A. LEE WORMAN
K:D
A|BAF ADD|FEF DFA|BAF ADD|FEE EFA|
BAF ADD|FEF DFA|dcB AFE|FDD D2:|
||A|def d2 B|ABA AFD|def d2 f|ede fdB|
def edB|AFA ABc|dcB AFE|FDD D2:|


